X:224
T:Come Thou Fount Of Every Blessing
%%stretchlast false
M:3/4
L:1/4
K:C clef=C1
"^I"[C,G,CE]/ "^vii°7³"[C,F,B,D]/ "^I"[C,E,C] [C,E,C] | [C,G,CE]/ "^I¹"[E,,G,CG]/ "^V"[G,,G,B,D] [G,,G,B,D] | "^I"[C,G,CE]/ [C,E,CG]/ "^IV"[F,CA] "^I"[C,E,CG] | "^I²"[G,,G,CE]/ "^V7"[G,,F,B,D]/ "^I"[C,E,C]2 | [C,G,CE]/ "^vii°7³"[C,F,B,D]/ "^I"[C,E,C] [C,E,C] | [C,G,CE]/ "^I¹"[E,,G,CG]/ "^V"[G,,G,B,D] [G,,G,B,D] | "^I"[C,G,CE]/ [C,E,CG]/ "^IV"[F,CA] "^I"[C,E,CG] | "^I²"[G,,G,CE]/ "^V7"[G,,F,B,D]/ "^I"[C,E,C]2 | "^I¹"[E,G,CG]/ "^ii"[D,F,FA]/4 [D,F,FB]/4 "^I"[C,G,Ec] "^Imaj7"[C,E,GB] | "^IV²"[C,F,FA]/ "^I"[C,G,EG]/ "^IV"[F,CA]/ "^I¹"[E,G,CG]/ "^I"[C,G,CE] | [C,G,EG]/ "^vii7"[B,,D,DA]/4 "^vii"[B,,D,DB]/4 "^vi"[A,,E,Cc] "^iii"[E,G,GB] | "^IV"[F,CFA]/ "^V"[G,B,DG]/ "^I"[C,CEc]2 | [C,G,CE]/ "^vii°7³"[C,F,B,D]/ "^I"[C,E,C] [C,E,C] | [C,G,CE]/ "^I¹"[E,,G,CG]/ "^V"[G,,G,B,D] [G,,G,B,D] | "^I"[C,G,CE]/ [C,E,CG]/ "^IV"[F,CA] "^I"[C,E,CG] | "^I²"[G,,G,CE]/ "^V7"[G,,F,B,D]/ "^I"[C,E,C]2 |]
